src/assets/icon/company/BSG.svg

<svg width="200" height="80" viewBox="0 0 200 80" fill="none" xmlns="http://www.w3.org/2000/svg">
<path fill-rule="evenodd" clip-rule="evenodd" d="M58.0258 61C49.189 61 42 51.578 42 40C42 28.422 49.189 19 58.0258 19C66.8626 19 74.053 28.422 74.053 40C74.053 51.578 66.8626 61 58.0258 61ZM58.0258 20.106C49.798 20.106 43.1046 29.031 43.1046 40C43.1046 50.969 49.7966 59.894 58.0258 59.894C66.2536 59.894 72.947 50.969 72.947 40C72.947 29.031 66.2536 20.106 58.0258 20.106ZM148.54 47.2576C147.787 48.3076 146.853 49.0608 145.74 49.52C144.675 49.9692 143.533 50.2033 142.377 50.2088C140.939 50.2088 139.658 49.9316 138.527 49.3786C137.421 48.8448 136.44 48.0839 135.647 47.1456C134.848 46.1909 134.236 45.0936 133.844 43.9116C133.431 42.6896 133.222 41.4077 133.225 40.1176C133.225 38.656 133.417 37.2644 133.805 35.9414C134.19 34.6198 134.764 33.4634 135.527 32.4694C136.29 31.4761 137.265 30.6651 138.38 30.095C139.52 29.5042 140.853 29.2088 142.377 29.2088C143.419 29.2088 144.4 29.3348 145.326 29.5896C146.25 29.8416 147.076 30.2406 147.802 30.7838C148.53 31.3284 149.139 32.0158 149.632 32.8488C150.126 33.6832 150.462 34.6912 150.641 35.8728H148C147.876 35.1028 147.645 34.442 147.311 33.889C146.993 33.3549 146.569 32.891 146.066 32.5254C145.557 32.1624 144.989 31.8914 144.386 31.7246C143.735 31.5433 143.062 31.4538 142.386 31.4586C141.238 31.4586 140.255 31.7036 139.433 32.1894C138.622 32.667 137.933 33.3265 137.42 34.1158C136.882 34.9514 136.493 35.8735 136.269 36.8416C136.021 37.8684 135.896 38.9212 135.898 39.9776C135.898 41.0276 136.038 42.0342 136.322 42.9988C136.604 43.9648 137.019 44.8174 137.567 45.5566C138.113 46.2986 138.789 46.8866 139.593 47.3276C140.395 47.7686 141.326 47.9884 142.386 47.9884C143.375 47.9884 144.248 47.8204 145.008 47.483C145.767 47.1456 146.408 46.6808 146.926 46.09C147.447 45.4992 147.84 44.8076 148.105 44.0096C148.369 43.213 148.483 42.3562 148.449 41.4378H142.04V39.188H150.837V49.758H149.152L148.54 47.2576ZM75.6707 39.9875L100.028 60.0453L124.382 39.9875L100.028 19.9297L75.6707 39.9875ZM100.028 58.6145L77.4095 39.9875L100.028 21.3619L122.645 39.9875L100.028 58.6145ZM62.8215 39.1489C64.0577 39.4121 65.0027 39.9735 65.6607 40.8359V40.8345C66.3159 41.6969 66.6449 42.7469 66.6449 43.9845C66.6445 44.7146 66.5112 45.4385 66.2515 46.1209C65.993 46.8087 65.5955 47.4359 65.0839 47.9633C64.5387 48.5169 63.8885 48.9562 63.1715 49.2555C62.4127 49.5831 61.5377 49.7483 60.5437 49.7483H51.3975V29.6751H58.1245C58.5884 29.6752 59.0522 29.6799 59.5161 29.6891C60.0131 29.6989 60.5045 29.7269 60.9931 29.7731C61.4514 29.8158 61.9067 29.8859 62.3567 29.9831C62.7386 30.0621 63.1045 30.205 63.4389 30.4059C64.1123 30.8166 64.6842 31.3741 65.1119 32.0369C65.5711 32.7299 65.8007 33.5825 65.8007 34.5947C65.8007 35.6629 65.5431 36.5869 65.0279 37.3639C64.5113 38.1409 63.7763 38.7177 62.8215 39.0929V39.1489ZM58.8567 31.9235H54.0687V38.3047H58.8553C60.3743 38.3047 61.4649 38.0359 62.1313 37.5039C62.7963 36.9691 63.1281 36.1683 63.1281 35.0987C63.1281 34.3875 63.0161 33.8247 62.7921 33.4131C62.5667 33.0001 62.2587 32.6809 61.8639 32.4569C61.4719 32.2329 61.0169 32.0873 60.5003 32.0215C59.9865 31.9571 59.4377 31.9235 58.8567 31.9235ZM60.2063 47.4985C61.3865 47.4985 62.3105 47.1793 62.9755 46.5409C63.6405 45.9053 63.9737 45.0233 63.9737 43.8977C63.9737 43.2425 63.8519 42.6993 63.6083 42.2681C63.3661 41.8369 63.0413 41.4939 62.6395 41.2419C62.2363 40.9885 61.7729 40.8107 61.2479 40.7085C60.7229 40.6063 60.1797 40.5545 59.6169 40.5545H54.0687V47.4985H60.2063ZM99.7458 31.4579C101.13 31.4579 102.27 31.7813 103.16 32.4281V32.4295C104.049 33.0749 104.57 34.1207 104.72 35.5655H107.251C107.212 34.4595 107.002 33.5089 106.617 32.7109C106.232 31.9143 105.707 31.2535 105.042 30.7285C104.377 30.2049 103.606 29.8199 102.724 29.5749C101.844 29.3327 100.887 29.2109 99.8564 29.2109C98.9498 29.2097 98.0469 29.3278 97.1712 29.5623C96.3369 29.7795 95.547 30.141 94.8374 30.6305C94.1564 31.1058 93.5941 31.7314 93.1938 32.4589C92.7822 33.1981 92.5764 34.0745 92.5764 35.0867C92.5764 36.0051 92.7598 36.7695 93.1252 37.3771C93.4866 37.9835 93.9877 38.4947 94.5868 38.8681C95.2303 39.2688 95.9249 39.5811 96.6518 39.7963C97.4264 40.0318 98.2095 40.2382 98.9996 40.4151C99.7962 40.5929 100.577 40.7651 101.347 40.9331C102.056 41.0839 102.748 41.3058 103.412 41.5953C104.02 41.8655 104.51 42.2169 104.874 42.6481C105.241 43.0793 105.423 43.6421 105.423 44.3351C105.423 45.0659 105.273 45.6651 104.973 46.1341C104.674 46.6017 104.279 46.9727 103.793 47.2443C103.306 47.5159 102.757 47.7091 102.15 47.8211C101.541 47.9331 100.936 47.9891 100.337 47.9891C99.5876 47.9891 98.8568 47.8967 98.1428 47.7091C97.4316 47.5229 96.8072 47.2317 96.2738 46.8369C95.7404 46.4435 95.3092 45.9409 94.9816 45.3333C94.654 44.7229 94.4888 43.9977 94.4888 43.1549H91.959C91.959 44.3729 92.1788 45.4257 92.6198 46.3161C93.0372 47.1792 93.6538 47.9307 94.4188 48.5085C95.2115 49.0968 96.1076 49.5308 97.0606 49.7881C99.009 50.3132 101.057 50.3469 103.022 49.8861C103.949 49.6719 104.789 49.3233 105.538 48.8459C106.287 48.3685 106.901 47.7497 107.379 46.9909C107.857 46.2307 108.095 45.3165 108.095 44.2497C108.095 43.2557 107.911 42.4311 107.547 41.7745C107.181 41.1193 106.694 40.5761 106.085 40.1449C105.476 39.7137 104.789 39.3707 104.02 39.1187C103.251 38.8653 102.469 38.6441 101.672 38.4579C100.874 38.2717 100.093 38.0967 99.3244 37.9371C98.5558 37.7789 97.867 37.5773 97.2594 37.3337C96.6504 37.0915 96.1618 36.7765 95.7978 36.3915C95.431 36.0079 95.249 35.5053 95.249 34.8879C95.249 34.2313 95.375 33.6839 95.627 33.2429C95.871 32.8125 96.219 32.45 96.6392 32.1887C97.0606 31.9269 97.5408 31.7379 98.0868 31.6259C98.63 31.5139 99.183 31.4579 99.7458 31.4579ZM157.488 59.2463L158.332 59.7727V20.2031L157.488 20.7295C152.935 23.5673 147.685 25.0667 142.307 25.0667C136.94 25.0695 131.681 23.5668 127.126 20.7295L126.282 20.2031V59.7727L127.126 59.2463C131.681 56.4087 136.94 54.906 142.307 54.9091C147.673 54.9058 152.933 56.4085 157.488 59.2463ZM127.387 57.8015V22.1743C131.916 24.7923 137.054 26.1713 142.307 26.1713C147.545 26.1748 152.692 24.796 157.228 22.1743V57.8015C152.7 55.1835 147.562 53.8045 142.307 53.8045C137.068 53.8014 131.922 55.1801 127.387 57.8015Z" fill="white"/>
</svg>

<svg width="200" height="80" fill="none" xmlns="http://www.w3.org/2000/svg"><path fill-rule="evenodd" clip-rule="evenodd" d="M58.026 61C49.189 61 42 51.578 42 40s7.189-21 16.026-21 16.027 9.422 16.027 21-7.19 21-16.027 21Zm0-40.894c-8.228 0-14.921 8.925-14.921 19.894 0 10.969 6.692 19.894 14.92 19.894 8.229 0 14.922-8.925 14.922-19.894 0-10.969-6.693-19.894-14.921-19.894Zm90.514 27.152c-.753 1.05-1.687 1.803-2.8 2.262a8.757 8.757 0 0 1-3.363.689c-1.438 0-2.719-.277-3.85-.83a8.751 8.751 0 0 1-2.88-2.233 9.89 9.89 0 0 1-1.803-3.234 11.765 11.765 0 0 1-.619-3.794c0-1.462.192-2.854.58-4.177.385-1.321.959-2.478 1.722-3.472a8.446 8.446 0 0 1 2.853-2.374c1.14-.59 2.473-.886 3.997-.886 1.042 0 2.023.126 2.949.38.924.253 1.75.652 2.476 1.195a6.979 6.979 0 0 1 1.83 2.065c.494.834.83 1.842 1.009 3.024H148c-.124-.77-.355-1.431-.689-1.984a4.589 4.589 0 0 0-1.245-1.364 5.348 5.348 0 0 0-1.68-.8 7.262 7.262 0 0 0-2-.266c-1.148 0-2.131.245-2.953.73a6.082 6.082 0 0 0-2.013 1.927 8.627 8.627 0 0 0-1.151 2.726 13.251 13.251 0 0 0-.371 3.136c0 1.05.14 2.056.424 3.02a8.03 8.03 0 0 0 1.245 2.559 6.163 6.163 0 0 0 2.026 1.77c.802.442 1.733.661 2.793.661.989 0 1.862-.168 2.622-.505a5.467 5.467 0 0 0 1.918-1.393 5.926 5.926 0 0 0 1.179-2.08 7.258 7.258 0 0 0 .344-2.572h-6.409v-2.25h8.797v10.57h-1.685l-.612-2.5Zm-72.87-7.27 24.358 20.057 24.354-20.058-24.354-20.057-24.357 20.057Zm24.358 18.627L77.409 39.986l22.619-18.625 22.617 18.625-22.617 18.627ZM62.821 39.148c1.237.263 2.182.825 2.84 1.687v-.002c.655.863.984 1.913.984 3.15 0 .73-.134 1.454-.394 2.137a5.349 5.349 0 0 1-1.167 1.842 5.844 5.844 0 0 1-1.913 1.292c-.758.328-1.633.493-2.627.493h-9.146V29.675h6.726c.464 0 .928.005 1.392.014.497.01.989.038 1.477.084.458.043.914.113 1.364.21.382.08.748.222 1.082.423.673.41 1.245.968 1.673 1.63.46.694.689 1.547.689 2.559 0 1.068-.258 1.992-.773 2.769-.517.777-1.252 1.354-2.207 1.729v.056Zm-3.964-7.226h-4.788v6.382h4.786c1.52 0 2.61-.27 3.276-.801.665-.535.997-1.336.997-2.405 0-.711-.112-1.274-.336-1.686a2.385 2.385 0 0 0-.928-.956 3.652 3.652 0 0 0-1.364-.435 13.236 13.236 0 0 0-1.643-.098Zm1.35 15.576c1.18 0 2.103-.32 2.768-.958.666-.636.999-1.518.999-2.643 0-.656-.122-1.199-.366-1.63a2.821 2.821 0 0 0-.968-1.026 4.038 4.038 0 0 0-1.392-.533 8.514 8.514 0 0 0-1.631-.155h-5.548v6.944h6.137Zm39.539-16.041c1.384 0 2.524.323 3.414.97v.002c.889.645 1.41 1.69 1.56 3.136h2.531c-.039-1.107-.249-2.057-.634-2.855a5.577 5.577 0 0 0-1.575-1.982 6.519 6.519 0 0 0-2.318-1.154 10.782 10.782 0 0 0-2.868-.364c-.906-.001-1.81.117-2.685.351a7.388 7.388 0 0 0-2.334 1.069 5.41 5.41 0 0 0-1.643 1.828c-.412.74-.618 1.615-.618 2.628 0 .918.184 1.682.55 2.29a4.428 4.428 0 0 0 1.46 1.491c.644.4 1.339.713 2.066.928a32.43 32.43 0 0 0 2.348.62c.796.177 1.577.35 2.347.517.709.15 1.401.373 2.065.662.608.27 1.098.622 1.462 1.053.367.431.549.994.549 1.687 0 .73-.15 1.33-.45 1.8a3.28 3.28 0 0 1-1.18 1.11 5.342 5.342 0 0 1-1.643.576c-.609.112-1.214.168-1.813.168-.75 0-1.48-.092-2.194-.28a5.412 5.412 0 0 1-1.87-.872 4.486 4.486 0 0 1-1.291-1.504c-.328-.61-.493-1.335-.493-2.178h-2.53c0 1.218.22 2.27.66 3.161a6.046 6.046 0 0 0 1.8 2.192 7.879 7.879 0 0 0 2.642 1.28c1.948.525 3.996.559 5.961.098a7.994 7.994 0 0 0 2.516-1.04 5.902 5.902 0 0 0 1.841-1.855c.478-.76.716-1.675.716-2.741 0-.994-.184-1.819-.548-2.475a4.897 4.897 0 0 0-1.462-1.63 7.69 7.69 0 0 0-2.065-1.026 27.455 27.455 0 0 0-2.348-.661 98.327 98.327 0 0 0-2.348-.52 12.134 12.134 0 0 1-2.065-.604c-.609-.242-1.097-.558-1.461-.943-.367-.383-.549-.886-.549-1.503 0-.657.126-1.204.378-1.645.244-.43.592-.793 1.012-1.054.422-.262.902-.451 1.448-.563a8.194 8.194 0 0 1 1.659-.168Zm57.742 27.788.844.527v-39.57l-.844.527a28.67 28.67 0 0 1-15.181 4.337 28.683 28.683 0 0 1-15.181-4.337l-.844-.527v39.57l.844-.527a28.678 28.678 0 0 1 15.181-4.337 28.677 28.677 0 0 1 15.181 4.337Zm-30.101-1.445V22.174a29.788 29.788 0 0 0 14.92 3.997 29.779 29.779 0 0 0 14.921-3.997v35.627a29.784 29.784 0 0 0-14.921-3.997 29.777 29.777 0 0 0-14.92 3.997Z" fill="#fff"/></svg>
